packages/icons/src/svg/smiley-unhappy.svg

<svg xmlns="http://www.w3.org/2000/svg" viewBox="0 0 16 16">
  <path d="M11.2158,10.6447 C11.4488,10.8537 11.4678,11.2127 11.2598,11.4457 C11.0498,11.6787 10.6918,11.6987 10.4548,11.4857 C10.4488,11.4817 10.4398,11.4737 10.4268,11.4617 C10.3998,11.4407 10.3568,11.4087 10.2998,11.3667 C10.1838,11.2837 10.0108,11.1687 9.7918,11.0547 C9.3508,10.8277 8.7318,10.6027 8.0098,10.6027 C7.2868,10.6047 6.4508,10.8157 5.5108,11.5197 C5.2608,11.7077 4.9048,11.6587 4.7178,11.4087 C4.5288,11.1577 4.5778,10.8017 4.8288,10.6147 C5.9408,9.7747 7.0448,9.4687 8.0098,9.4687 C9.9288,9.4797 11.1648,10.6077 11.2158,10.6447 M11.6948,6.5377 C11.6948,7.1997 11.1578,7.7377 10.4948,7.7377 C9.8318,7.7377 9.2948,7.1997 9.2948,6.5377 C9.2948,5.8737 9.8318,5.3367 10.4948,5.3367 C11.1578,5.3367 11.6948,5.8737 11.6948,6.5377 M4.3518,6.5377 C4.3518,5.8737 4.8888,5.3367 5.5518,5.3367 C6.2158,5.3367 6.7518,5.8737 6.7518,6.5377 C6.7518,7.1997 6.2158,7.7377 5.5518,7.7377 C4.8888,7.7377 4.3518,7.1997 4.3518,6.5377 M12.8558,12.8547 C11.6108,14.0987 9.8978,14.8667 7.9998,14.8667 C6.1018,14.8667 4.3898,14.0987 3.1448,12.8547 C1.9008,11.6117 1.1338,9.8977 1.1338,7.9997 C1.1338,6.1027 1.9008,4.3897 3.1448,3.1447 C4.3898,1.9007 6.1018,1.1337 7.9998,1.1337 C9.8978,1.1337 11.6108,1.9007 12.8558,3.1447 C14.0988,4.3897 14.8658,6.1027 14.8658,7.9997 C14.8658,9.8977 14.0988,11.6117 12.8558,12.8547 M7.9998,-0.0003 C3.5808,-0.0003 -0.0002,3.5827 -0.0002,7.9997 C-0.0002,12.4177 3.5808,15.9997 7.9998,15.9997 C12.4188,15.9997 15.9998,12.4177 15.9998,7.9997 C15.9998,3.5827 12.4188,-0.0003 7.9998,-0.0003"/>
</svg>

<svg xmlns="http://www.w3.org/2000/svg" viewBox="0 0 16 16">
  <path d="M11.216 10.645a.569.569 0 0 1 .044.8.568.568 0 0 1-.833.017 4.241 4.241 0 0 0-.635-.407 3.921 3.921 0 0 0-1.782-.452c-.723.002-1.56.213-2.5.917a.566.566 0 1 1-.681-.905c1.112-.84 2.216-1.146 3.18-1.146 1.92.01 3.156 1.139 3.207 1.176m.479-4.107a1.2 1.2 0 1 1-2.4 0 1.2 1.2 0 0 1 2.4 0m-7.343 0a1.2 1.2 0 1 1 2.4-.003 1.2 1.2 0 0 1-2.4.003m8.504 6.317A6.842 6.842 0 0 1 8 14.867a6.84 6.84 0 0 1-4.855-2.012A6.836 6.836 0 0 1 1.134 8a6.84 6.84 0 0 1 2.01-4.855A6.84 6.84 0 0 1 8 1.134c1.898 0 3.61.767 4.856 2.01A6.844 6.844 0 0 1 14.866 8a6.839 6.839 0 0 1-2.01 4.855M8 0a8 8 0 1 0 0 16A8 8 0 0 0 8 0"/>
</svg>
